X: 382
T: Lady Burnside's Strathspey
R: strathspey
M: C
L: 1/8
Z: 2012 John Chambers <jc:trillian.mit.edu>
B: J. Anderson "Budget of Strathspeys, Reels and Country Dances" (Early 1800s) p.38 #2
F: http://imslp.org/wiki/Anderson%27s_Budget_of_Strathspeys,_Reels_and_Country_Dances_(Various)
K: Ddor
A | d<dd>A F3A | c<cc>G E>GG>A | d<dd<A (FA)(Aa) | f>d (f/e/)d/^c/ d2d :|
A | d<df>d a<df>d | c<cd<c g<ce>g | d<df>d a>df<d | a>f a/g/f/e/ d2(d ||
A)| d<df<d ad f/g/a/f/ | c<ce>c g>c e/f/g/e/ | afge f>de>c | A>d (f/e/)(d/^c/) {c}d2d |]

%%sep 2 1 500
%%sep 1 1 500

